docs/public/images/landing/tool-github.svg

<svg width="24" height="24" viewBox="0 0 24 24" fill="none" xmlns="http://www.w3.org/2000/svg">
<rect x="0.5" y="0.5" width="23" height="23" rx="3.5" fill="url(#paint0_linear_299_43939)" fill-opacity="0.2"/>
<rect x="0.5" y="0.5" width="23" height="23" rx="3.5" stroke="url(#paint1_linear_299_43939)"/>
<g clip-path="url(#clip0_299_43939)">
<path d="M12 4.44531C7.85625 4.44531 4.5 7.80344 4.5 11.9453C4.5 15.2597 6.64875 18.0703 9.62813 19.0609C10.0031 19.1316 10.1406 18.8997 10.1406 18.7003C10.1406 18.5222 10.1344 18.0503 10.1313 17.4253C8.045 17.8778 7.605 16.4191 7.605 16.4191C7.26375 15.5534 6.77062 15.3222 6.77062 15.3222C6.09125 14.8572 6.82312 14.8666 6.82312 14.8666C7.57625 14.9191 7.97187 15.6391 7.97187 15.6391C8.64062 16.7859 9.7275 16.4547 10.1562 16.2628C10.2238 15.7778 10.4169 15.4472 10.6313 15.2597C8.96563 15.0722 7.215 14.4272 7.215 11.5534C7.215 10.7347 7.50563 10.0659 7.98688 9.54094C7.9025 9.35156 7.64937 8.58906 8.0525 7.55594C8.0525 7.55594 8.68062 7.35469 10.115 8.32469C10.715 8.15781 11.3525 8.07531 11.99 8.07156C12.6275 8.07531 13.265 8.15781 13.865 8.32469C15.29 7.35469 15.9181 7.55594 15.9181 7.55594C16.3212 8.58906 16.0681 9.35156 15.9931 9.54094C16.4712 10.0659 16.7619 10.7347 16.7619 11.5534C16.7619 14.4347 15.0087 15.0691 13.34 15.2534C13.6025 15.4784 13.8463 15.9384 13.8463 16.6409C13.8463 17.6447 13.8369 18.4509 13.8369 18.6947C13.8369 18.8916 13.9681 19.1259 14.3525 19.0509C17.3531 18.0672 19.5 15.2547 19.5 11.9453C19.5 7.80344 16.1419 4.44531 12 4.44531Z" fill="#00DC82"/>
</g>
<defs>
<linearGradient id="paint0_linear_299_43939" x1="12" y1="0" x2="12" y2="24" gradientUnits="userSpaceOnUse">
<stop stop-color="#00DC82"/>
<stop offset="1" stop-color="#00DC82" stop-opacity="0.1"/>
</linearGradient>
<linearGradient id="paint1_linear_299_43939" x1="12" y1="0" x2="12" y2="24" gradientUnits="userSpaceOnUse">
<stop stop-color="#00DC82"/>
<stop offset="1" stop-color="#00DC82" stop-opacity="0.1"/>
</linearGradient>
<clipPath id="clip0_299_43939">
<rect width="15" height="15" fill="white" transform="translate(4.5 4.25977)"/>
</clipPath>
</defs>
</svg>

<svg xmlns="http://www.w3.org/2000/svg" width="24" height="24" fill="none"><rect width="23" height="23" x=".5" y=".5" fill="url(#a)" fill-opacity=".06" rx="3.5"/><rect width="23" height="23" x=".5" y=".5" stroke="url(#b)" rx="3.5"/><g clip-path="url(#c)"><path fill="#00C16A" d="M12 4.4453c-4.1437 0-7.5 3.3581-7.5 7.5 0 3.3144 2.1487 6.125 5.1281 7.1156.375.0707.5125-.1612.5125-.3606 0-.1781-.0062-.65-.0093-1.275-2.0863.4525-2.5263-1.0062-2.5263-1.0062-.3413-.8657-.8344-1.0969-.8344-1.0969-.6794-.465.0525-.4556.0525-.4556.7531.0525 1.1488.7725 1.1488.7725.6687 1.1468 1.7556.8156 2.1843.6237.0676-.485.2607-.8156.4751-1.0031-1.6657-.1875-3.4163-.8325-3.4163-3.7063 0-.8187.2906-1.4875.7719-2.0125-.0844-.1893-.3375-.9518.0656-1.985 0 0 .6281-.2012 2.0625.7688.6-.1669 1.2375-.2494 1.875-.2531.6375.0037 1.275.0862 1.875.253 1.425-.97 2.0531-.7687 2.0531-.7687.4031 1.0332.15 1.7957.075 1.985.4781.525.7688 1.1938.7688 2.0125 0 2.8813-1.7532 3.5157-3.4219 3.7.2625.225.5063.685.5063 1.3875 0 1.0038-.0094 1.81-.0094 2.0538 0 .1969.1312.4312.5156.3562 3.0006-.9837 5.1475-3.7962 5.1475-7.1056 0-4.1419-3.3581-7.5-7.5-7.5Z"/></g><defs><linearGradient id="a" x1="12" x2="12" y1="0" y2="24" gradientUnits="userSpaceOnUse"><stop stop-color="#00DC82"/><stop offset="1" stop-color="#00DC82" stop-opacity=".1"/></linearGradient><linearGradient id="b" x1="12" x2="12" y1="0" y2="24" gradientUnits="userSpaceOnUse"><stop stop-color="#00C16A"/><stop offset="1" stop-color="#00C16A" stop-opacity=".1"/></linearGradient><clipPath id="c"><path fill="#fff" d="M4.5 4.2598h15v15h-15z"/></clipPath></defs></svg>
